X: 20092
T: DUNCAN GRAY
Q: "Lively"
%R: reel
B: "Edinburgh Repository of Music" v.2 p.9 #2
F: http://digital.nls.uk/special-collections-of-printed-music/pageturner.cfm?id=87776133
Z: 2015 John Chambers <jc:trillian.mit.edu>
M: C|
L: 1/8
K: A
[|\
EAGA BcG2 | A2B>d cAA2 |\
EAGA BcG2 | A2B>d cAA2 |]
ce (f/e/)(d/c/) dd d>d | c>c (d/c/)(B/A/) (G/A/)(B/G/) E>E |\
e (f/e/) d (e/d/) (c/e/)(d/c/) (B/d/c/B/ | A2) B>d cAA |]

%%sep 2 1 500
%%sep 1 1 500

